components/icon/svg/24/food_coffee-cup.svg

<?xml version="1.0" encoding="UTF-8"?>
<svg width="24px" height="24px" viewBox="0 0 24 24" version="1.1" xmlns="http://www.w3.org/2000/svg" xmlns:xlink="http://www.w3.org/1999/xlink">
    <!-- Generator: Sketch 64 (93537) - https://sketch.com -->
    <title>ic-db_food_coffee-cup_24</title>
    <desc>Created with Sketch.</desc>
    <g id="Symbols" stroke="none" stroke-width="1" fill="none" fill-rule="evenodd">
        <g id="24dp-Icon/Food/Coffee-Cup" fill="#282D37">
            <path d="M18.0156597,11.0086493 C19.660565,11.0086493 21,12.3473428 21,13.9913479 C21,15.6588378 19.660565,16.9975274 18.0156597,16.9975274 L18.0156597,16.9975274 L17.0052157,16.9975274 L17.0052157,17.9839306 C17.0052157,20.1915949 15.1958149,22 12.9869427,22 L12.9869427,22 L6.99477727,22 C4.78590002,22 3,20.1915949 3,17.9839306 L3,17.9839306 L3,11.0086493 Z M15.0078286,13.0049447 L4.99738813,13.0049447 L4.99738813,17.9839306 C4.99738813,19.0877623 5.89033815,19.980223 6.99477727,19.980223 L6.99477727,19.980223 L12.9869427,19.980223 C14.0913778,19.980223 15.0078286,19.0877623 15.0078286,17.9839306 L15.0078286,17.9839306 L15.0078286,13.0049447 Z M18.0156597,13.0049447 L17.0052157,13.0049447 L17.0052157,15.001236 L18.0156597,15.001236 C18.5561278,15.001236 19.0026029,14.5550062 19.0026029,13.9913479 C19.0026029,13.4511745 18.5561278,13.0049447 18.0156597,13.0049447 L18.0156597,13.0049447 Z M5.98433331,7.97898194 C5.98433331,8.54264121 6.43080831,8.98887106 6.99477727,8.98887106 C7.53524643,8.98887106 7.98172144,8.54264121 7.98172144,7.97898194 L7.98172144,5.98269158 C7.98172144,5.4425202 7.53524643,4.99629035 6.99477727,4.99629035 C6.43080831,4.99629035 5.98433331,5.4425202 5.98433331,5.98269158 L5.98433331,7.97898194 Z M8.9921654,7.97898194 C8.9921654,8.54264121 9.43864041,8.98887106 10.0026094,8.98887106 C10.5430785,8.98887106 10.9895535,8.54264121 10.9895535,7.97898194 L10.9895535,4.00988912 C10.9895535,3.46971773 10.5430785,3 10.0026094,3 C9.43864041,3 8.9921654,3.46971773 8.9921654,4.00988912 L8.9921654,7.97898194 Z M11.9999975,7.97898194 C11.9999975,8.54264121 12.4464725,8.98887106 12.9869427,8.98887106 C13.5509096,8.98887106 13.9973846,8.54264121 13.9973846,7.97898194 L13.9973846,6.00617947 C13.9973846,5.4425202 13.5509096,4.99629035 12.9869427,4.99629035 C12.4464725,4.99629035 11.9999975,5.4425202 11.9999975,6.00617947 L11.9999975,7.97898194 Z" id="🎨-Color"></path>
        </g>
    </g>
</svg>

<svg width="24" height="24" xmlns="http://www.w3.org/2000/svg"><path d="M18.016 11.009A2.988 2.988 0 0121 13.99a2.993 2.993 0 01-2.984 3.007h-1.01v.986A4.03 4.03 0 0112.985 22H6.996C4.785 22 3 20.192 3 17.984v-6.975zm-3.008 1.996H4.998v4.979c0 1.104.892 1.996 1.997 1.996h5.992c1.104 0 2.02-.892 2.02-1.996v-4.98zm3.008 0h-1.01V15h1.01c.54 0 .987-.446.987-1.01a.993.993 0 00-.987-.986zM5.984 7.979a.998.998 0 101.997 0V5.983a.993.993 0 00-.986-.987.998.998 0 00-1.01.987v1.996zm3.008 0a.998.998 0 101.997 0v-3.97c0-.54-.446-1.009-.986-1.009-.564 0-1.01.47-1.01 1.01v3.969zm3.008 0a.998.998 0 101.997 0V6.006a.998.998 0 10-1.997 0V7.98z" fill="#282D37" fill-rule="evenodd"/></svg>
